X:23
T:Ryan's Polka
M:2/4
L:1/8
R:polka
K:Dmaj
|: dd B/c/d/B/ | AF AF | dd B/c/d/B/ | AF ED |
dd B/c/d/B/ | AF A d/e/ | fd e/d/ c | d2 d2 :|
|: fd d e/f/ | gf e d/e/ | fd A d/e/ | f d/f/ a a/g/ |
fd d e/f/ | gf e d/e/ | fd e/d/ c | d2 d2 :|
